images-source/features/classroom.svg

<?xml version="1.0" encoding="UTF-8"?>
<svg width="82px" height="82px" viewBox="0 0 82 82" version="1.1" xmlns="http://www.w3.org/2000/svg" xmlns:xlink="http://www.w3.org/1999/xlink">
    <!-- Generator: Sketch 48.2 (47327) - http://www.bohemiancoding.com/sketch -->
    <title>classroom</title>
    <desc>Created with Sketch.</desc>
    <defs></defs>
    <g id="platform" stroke="none" stroke-width="1" fill="none" fill-rule="evenodd" transform="translate(-699.000000, -788.000000)">
        <g id="how-is-works" transform="translate(-80.000000, 645.000000)">
            <g id="Group-2" transform="translate(526.000000, 143.000000)">
                <g id="classroom" transform="translate(253.000000, 0.000000)">
                    <g id="class">
                        <path d="M21.6210938,0 C16.2786016,0 12.0117188,4.48533594 12.0117188,9.76953125 C12.0117188,15.0681406 16.3224844,19.3789062 21.6210938,19.3789062 C26.9197031,19.3789062 31.2304688,15.0681406 31.2304688,9.76953125 C31.2304688,4.48117187 26.9581406,0 21.6210938,0 Z M21.6210938,14.5742188 C18.9717891,14.5742188 16.8164062,12.4188359 16.8164062,9.76953125 C16.8164062,7.07826563 19.0166328,4.8046875 21.6210938,4.8046875 C24.2255547,4.8046875 26.4257812,7.07826563 26.4257812,9.76953125 C26.4257812,12.4188359 24.2703984,14.5742188 21.6210938,14.5742188 Z" id="Shape" fill="#4D4D4D" fill-rule="nonzero"></path>
                        <path d="M37,2 L78,2 L78,35 C64.1019565,35.8433986 55.1019565,35.8433986 51,35 C48.0747056,34.3985336 49.1921954,28.3288293 47,28 C40.1968378,26.9795257 37.1968378,27.312859 38,29 L37,2 Z" id="Rectangle-8" fill="#FFFFFF"></path>
                        <rect id="Rectangle-9" fill="#00AAE3" x="44" y="10" width="12" height="10"></rect>
                        <rect id="Rectangle-9-Copy" fill="#FFAF1D" x="62" y="10" width="12" height="10"></rect>
                        <path d="M74.7929688,0 L40.8398438,0 C36.8658867,0 33.6328125,3.23307422 33.6328125,7.20703125 L33.6328125,23.6014258 L31.5214727,21.4902461 C30.1601445,20.1287578 28.3503789,19.3789063 26.4257812,19.3789063 L21.6210938,19.3789063 C20.6026602,19.3789063 13.0301523,19.3789063 12.0117188,19.3789063 C5.38845703,19.3789063 0,24.7673633 0,31.390625 C0,32.7565977 0,43.8315625 0,45.8046875 C0,49.7786445 3.23307422,53.0117188 7.20703125,53.0117188 C8.04897266,53.0117188 8.85776172,52.8666172 9.609375,52.6001172 L9.609375,74.7929688 C9.609375,78.7669258 12.8424492,82 16.8164062,82 C18.6606055,82 20.3451289,81.3038008 21.6210938,80.1604453 C22.8970586,81.3038008 24.581582,82 26.4257812,82 C30.3997383,82 33.6328125,78.7669258 33.6328125,74.7929688 L33.6328125,42.9929844 C35.4696445,43.6408164 37.5044297,43.5160547 39.2584609,42.642082 L47.3471523,38.5976562 L74.7929688,38.5976562 C78.7669258,38.5976562 82,35.364582 82,31.390625 L82,7.20703125 C82,3.23307422 78.7669258,0 74.7929688,0 Z M46.7190195,33.5397617 L37.1125273,38.3430078 C36.2113281,38.7920859 35.0919961,38.6489063 34.3365391,37.8936094 L32.9294062,36.4863164 C31.4437969,35.000707 28.8346914,36.0111328 28.8282852,38.1775664 C28.8282852,38.1799688 28.8279648,38.1822109 28.8279648,38.1846133 L28.8279648,74.7929688 C28.8279648,76.1176211 27.7502734,77.1953125 26.4256211,77.1953125 C25.1009687,77.1953125 24.0232773,76.1176211 24.0232773,74.7929688 L24.0232773,50.609375 C24.0232773,49.2826406 22.947668,48.2070312 21.6209336,48.2070312 C20.2941992,48.2070312 19.2185898,49.2826406 19.2185898,50.609375 L19.2185898,74.7929688 C19.2185898,76.1176211 18.1408984,77.1953125 16.8162461,77.1953125 C15.4915937,77.1953125 14.4139023,76.1176211 14.4139023,74.7929688 L14.4139023,45.8046875 C14.4139023,43.9933203 14.4139023,32.8711094 14.4139023,31.390625 C14.4139023,30.0638906 13.338293,28.9882812 12.0115586,28.9882812 C10.6848242,28.9882812 9.60921484,30.0638906 9.60921484,31.390625 C9.60921484,32.7565977 9.60921484,43.8315625 9.60921484,45.8046875 C9.60921484,47.1293398 8.53152344,48.2070312 7.20687109,48.2070312 C5.88221875,48.2070312 4.80452734,47.1293398 4.80452734,45.8046875 C4.8046875,43.9933203 4.8046875,32.8711094 4.8046875,31.390625 C4.8046875,27.416668 8.03776172,24.1835938 12.0117187,24.1835938 C13.8230859,24.1835938 24.9452969,24.1835938 26.4257812,24.1835938 C27.0670469,24.1835938 27.6701953,24.4335977 28.1240781,24.8876406 L35.2841836,32.0477461 C36.0151367,32.7788594 37.1323867,32.9599961 38.0571289,32.4977852 L44.5705234,29.2410078 C45.7627266,28.6444258 47.1994883,29.1266562 47.7935078,30.3159766 C48.3876875,31.5044961 47.9075391,32.945582 46.7190195,33.5397617 Z M77.1953125,31.390625 C77.1953125,32.7152773 76.1176211,33.7929687 74.7929688,33.7929687 L52.4381992,33.7929687 C52.4527734,33.7518086 52.4687891,33.7114492 52.4825625,33.6699687 C52.8285,32.6321562 52.9322812,31.5530234 52.7999922,30.498875 L65.9376094,23.9300664 C67.1243672,23.3366875 67.6053164,21.8936797 67.0119375,20.7069219 C66.4185586,19.5201641 64.9753906,19.0390547 63.788793,19.6325937 L50.6519766,26.201082 C48.5472031,24.1651758 45.2686445,23.5189453 42.4210664,24.9440156 L38.4375,26.9358789 L38.4375,7.20703125 C38.4375,5.88237891 39.5151914,4.8046875 40.8398437,4.8046875 L74.7929687,4.8046875 C76.1176211,4.8046875 77.1953125,5.88237891 77.1953125,7.20703125 L77.1953125,31.390625 Z" id="Shape" fill="#4D4D4D" fill-rule="nonzero"></path>
                    </g>
                </g>
            </g>
        </g>
    </g>
</svg>

<svg width="82" height="82" viewBox="0 0 82 82" xmlns="http://www.w3.org/2000/svg"><title>classroom</title><g fill="none" fill-rule="evenodd"><path d="M21.621 0c-5.342 0-9.61 4.485-9.61 9.77 0 5.298 4.311 9.609 9.61 9.609 5.299 0 9.61-4.31 9.61-9.61C31.23 4.482 26.957 0 21.62 0zm0 14.574a4.81 4.81 0 0 1-4.805-4.804c0-2.692 2.2-4.965 4.805-4.965 2.605 0 4.805 2.273 4.805 4.965a4.81 4.81 0 0 1-4.805 4.804z" fill="#4D4D4D" fill-rule="nonzero"/><path d="M37 2h41v33c-13.898.843-22.898.843-27 0-2.925-.601-1.808-6.671-4-7-6.803-1.02-9.803-.687-9 1L37 2z" fill="#FFF"/><path fill="#00AAE3" d="M44 10h12v10H44z"/><path fill="#FFAF1D" d="M62 10h12v10H62z"/><path d="M74.793 0H40.84c-3.974 0-7.207 3.233-7.207 7.207v16.394l-2.112-2.11a7.16 7.16 0 0 0-5.095-2.112H12.01C5.389 19.379 0 24.767 0 31.39v14.414c0 3.974 3.233 7.207 7.207 7.207.842 0 1.65-.145 2.402-.412v22.193c0 3.974 3.233 7.207 7.207 7.207a7.178 7.178 0 0 0 4.805-1.84A7.178 7.178 0 0 0 26.426 82c3.974 0 7.207-3.233 7.207-7.207v-31.8a7.235 7.235 0 0 0 5.625-.35l8.09-4.045h27.445c3.974 0 7.207-3.233 7.207-7.207V7.207C82 3.233 78.767 0 74.793 0zM46.719 33.54l-9.606 4.803c-.902.45-2.021.306-2.776-.45l-1.408-1.407c-1.485-1.485-4.094-.475-4.1 1.692l-.001.007v36.608a2.405 2.405 0 0 1-2.402 2.402 2.405 2.405 0 0 1-2.403-2.402V50.609a2.402 2.402 0 0 0-4.804 0v24.184a2.405 2.405 0 0 1-2.403 2.402 2.405 2.405 0 0 1-2.402-2.402V45.805 31.39a2.402 2.402 0 0 0-4.805 0v14.414a2.405 2.405 0 0 1-2.402 2.402 2.405 2.405 0 0 1-2.402-2.402V31.39c0-3.974 3.233-7.207 7.207-7.207h14.414c.641 0 1.244.25 1.698.704l7.16 7.16a2.403 2.403 0 0 0 2.773.45l6.514-3.257a2.396 2.396 0 0 1 3.223 1.075 2.4 2.4 0 0 1-1.075 3.224zm30.476-2.15a2.405 2.405 0 0 1-2.402 2.403H52.438l.045-.123a7.18 7.18 0 0 0 .317-3.171l13.138-6.569a2.402 2.402 0 1 0-2.15-4.297L50.653 26.2a7.2 7.2 0 0 0-8.23-1.257l-3.984 1.992V7.207a2.405 2.405 0 0 1 2.402-2.402h33.953a2.405 2.405 0 0 1 2.402 2.402v24.184z" fill="#4D4D4D" fill-rule="nonzero"/></g></svg>
